X:67
T:Croydon Frisk
M:2/4
L:1/8
B:Thompson's Compleat Collection of 200 Favourite Country Dances, vol. 3 (London, 1773)
Z:Transcribed and edited by Flynn Titford-Mock, 2007
Z:abc's:AK/Fiddler's Companion
K:G
GGGG | B2G2 | AAAA | c2A2 | dBBd | cAAc | BGGG | G4::Bddd | e2c2 | cAAA | d2B2 |
BGGG | cAAA | edcB | A2 BA | GGGG | B2G2 | AAAA | c2A2 | dBBd | cAAc | BGGG | G4 :|

